style-guide/assets/xd-icons-user-small.svg

<svg viewBox="0 0 18 18" xmlns="http://www.w3.org/2000/svg" xmlns:xlink="http://www.w3.org/1999/xlink">
  <path d="M9 3c-1.103 0-2 .897-2 2s.897 2 2 2 2-.897 2-2-.897-2-2-2m0 6C6.794 9 5 7.206 5 5s1.794-4 4-4 4 1.794 4 4-1.794 4-4 4m5 8a1 1 0 0 1-1-1c0-2.206-1.794-4-4-4s-4 1.794-4 4a1 1 0 1 1-2 0c0-3.309 2.691-6 6-6s6 2.691 6 6a1 1 0 0 1-1 1"/>
</svg>

<?xml version="1.0" encoding="UTF-8"?>
<svg width="18px" height="18px" viewBox="0 0 18 18" version="1.1" xmlns="http://www.w3.org/2000/svg" xmlns:xlink="http://www.w3.org/1999/xlink">
    <!-- Generator: Sketch 51.3 (57544) - http://www.bohemiancoding.com/sketch -->
    <title>user</title>
    <desc>Created with Sketch.</desc>
    <defs>
        <path d="M9,3 C7.897,3 7,3.897 7,5 C7,6.103 7.897,7 9,7 C10.103,7 11,6.103 11,5 C11,3.897 10.103,3 9,3 M9,9 C6.794,9 5,7.206 5,5 C5,2.794 6.794,1 9,1 C11.206,1 13,2.794 13,5 C13,7.206 11.206,9 9,9 M14,17 C13.447,17 13,16.553 13,16 C13,13.794 11.206,12 9,12 C6.794,12 5,13.794 5,16 C5,16.553 4.553,17 4,17 C3.447,17 3,16.553 3,16 C3,12.691 5.691,10 9,10 C12.309,10 15,12.691 15,16 C15,16.553 14.553,17 14,17" id="path-1"></path>
    </defs>
    <g id="user" stroke="none" stroke-width="1" fill="none" fill-rule="evenodd">
        <mask id="mask-2" fill="white">
            <use xlink:href="#path-1"></use>
        </mask>
        <use id="icons/18px/User" fill="#000000" xlink:href="#path-1"></use>
    </g>
</svg>
